X: 40485
T: Tombrack, The
R: reel
M: 4/4
K: Dmajor
|E|D2 FD ADFD|AD F/G/F GECA,|D2 FD ADFD|GECE D3 E|
D2 FD ADFD|AD F/G/F GECE|D2 FD ADFD|GECA, D3 E|
C2 EC GCEC|D2 FD ADFD|C2 EC GCEC|EDCE D3 E|
C2 EC GCEC|D2 FD ADFD|D2 FD ADFD|GECA, D3 z|

